X:0706
T:The Menzies' Rant
P:The Menzies' Rant
C:Here from Stewart Robertson's Collection 1884
R:Reel (8x32) 2 chords
B:RSCDS 7-6
Z:Anselm Lingnau <anselm@strathspey.org>
M:C|
L:1/8
K:D
|:F|"D"D2dF ADDF|D2 dA "Em"BEEF|\
    "D"D2 dF "D7/C#"D2 fd|1 "B7"efdf "A"eEEF:|2 "B7"D2 dF "D"ADD||
!segno!f|"D"abaf "Em"beef|"D"abaf "D7/C#"defd|"Bm"efdf "A"eEEF|"D"D2dF AFFf|
    "D"abaf "Em"beef|"D"abaf "D7/C#"defd|\
    "Bm"efdf "A"eEED|"D"AdFd ADD!fine!||
d|"D"AdFd ADDd|AdFA "Em"BEEd|"D"AdFd Adfd|"Em"ef"D"df "E7"eEEd|
  "D"AdFd ADDd|AdFd Adfd|"A"ef"Bm7"df "A"eEEF|"D"D2 dF ADD!D.S.!|]

